X:1
T:Vater unser im Himmelreich
T:Variatio III
T:Felix Mendelssohn
%%score { ( 1 3 ) | 2 }
L:1/8
M:4/4
K:F
V:1 treble nm="Piano"
V:3 treble 
V:2 bass 
V:1
 z!p! [E^c] | z [Fd]/[Ge]/ [Af][Fd] [Ec][DB][CA][Fd] | %2
 z [DB] z [G,^C] z/ [F,D]/[G,E]/[A,F]/ [B,G][G,E] | %3
 z/ [DF]/[EG]/[FA]/ [GB][EG] z/ [FA]/[E^c]/[Fd]/ [Ge][Ec] | %4
 z/ [Af]/[Ge]/[Fd]/ [Ec][DB] [CA]G cF/_E/ | [Dc]/B/d/B/ GE/D/ ^C/E/[=B,D]/[CE]/ [DF][B,D] | %6
 z/ [^CE]/[=B,^G]/[CA]/ [D=B][B,G] z/ [CA]/[DB]/[E^c]/ [Fd][=Gf] | %7
 [Ae]c[F_B][Gd] [Ac][CA] z [B,G] | z [GB]2 [FA]/[EG]/ z/ [DF]/[EG]/[FA]/ [GB][EG] | %9
 z/ [^FA]/[GB]/[Ac]/ [Bd][GB] z/ [c_e]/[Bd]/[Ac]/ B[Ad] | [^Gd][Ac]=B [Ge]2 A z [df] | %11
 z [F=B]D[Ec] z/ [CA]/[=B,^G]/[CA]/ [DB][B,G] | %12
 z/ [CA]/[D=B]/[Ec]/ [Fd][DB] z/ [E^c]/[Fd]/[Ge]/ [Ff]d | %13
 z/ [Fd]/[Ge]/[Af]/ [Gg]d g/_B/A/G/ c[Af]/e/ | d/A/G/F/ Ec/B/ A/^C/D/E/ F/^G/[DA]/_B/ | %15
 A/^C/D/E/ F/^G/[DA]/B/ E/D/C/D/ E/=G/[CF]/E/ | A/C/D/_E/ D/c/[CB]/A/ [B,A][DG][CF][B,=E] | %17
 [A,A]_E D/G/F/=E/ [A,E]DG,^C | z/ [F,D]/[G,E]/[A,F]/ [B,G][G,E] z/ [FA]/[EG]/[DF]/ [^CE][GB] | %19
 z/ [Fd]/[Ge]/[Af]/ [Bg][Ge] [E^c][Ge][Bg][Ge] | [E^c]6 [DAd]2 |] %21
V:2
 A,2 | A,2 [D,F,]2 [E,G,]2 [F,A,]2 | [G,,F,]2 [A,,E,]2 [D,,D,-]4 | [D,,D,]4 D,, z A,2 | %4
 [D,A,]2 [E,G,]2 [F,C]B, A,2 | [B,,F,]2 G,2 [A,,A,-]4 | [A,,A,]4 A,, z [D,A,]_B, | %7
 [A,C]2 [B,D]E [F,F]2 [G,E]2 | [A,D]2 [A,^C]2 [B,D-]4 | [A,D]2 G, z ^F, z [G,D]=F, | %10
 [E,E]2 D2 [F,C]2 [D,B,]2 | [E,A,]2 [E,^G,]2 [A,,A,-]4 | [A,,A,]4 A,, z D2 | %13
 C2 [F,B,]2 [E,C]>_B, [F,A,]2 | [F,A,]2 [G,,G,]2 [A,,F,-]4 | [A,,F,]4 A,, z z2 | %16
 G,, z [^F,A,]2 [G,B,]2 [C,A,]G, | [F,,F,]2 [B,,G,]2 [A,,F,]2 [A,,E,]2 | [D,,D,]4 D,, z z2 | %19
 D,, z z2 z4 | z8 |] %21
V:3
 x2 | x8 | x8 | x8 | x8 | x8 | x8 | x8 | x8 | x8 | x8 | x8 | x8 | x8 | x8 | x8 | x8 | x8 | x8 | %19
 x8 | z2 [GB]4 z2 |] %21

